X:367
T:Trip to Pakistan
Z: id:dc-reel-373
M:C
L:1/8
K:E Minor
EGBE G3B|ABAG FGAF|EGBE G3B|AGFG E4:|!
EGBc-c2A2|BABd BABG|EGBc-c2A2|BAGB A4:|!
FGBF GBFG|EFGE FGEF|DFAD FADF|AGFG E4:|!

